images/svg/teeth-top-active.svg

<svg width="48" height="52" viewBox="0 0 48 52" fill="none" xmlns="http://www.w3.org/2000/svg">
<path d="M12.3125 51C15.3791 51 17.0362 50.2215 18.5825 49.4929L18.5905 49.4891C20.0372 48.8074 21.3762 48.1765 24 48.1765C26.6244 48.1765 27.963 48.8074 29.4094 49.4891L29.4174 49.4928C30.9636 50.2215 32.6204 51 35.6875 51C41.9603 51 47 45.7875 47 39.4117C47 32.9232 45.854 23.4918 43.9819 15.6726C43.0467 11.7668 41.9175 8.20756 40.6319 5.60284C39.9906 4.30352 39.2853 3.18941 38.5066 2.38637C37.7317 1.58716 36.7867 1 35.6875 1C33.6065 1 32.3462 2.67638 31.5078 4.43793C30.7301 6.07205 30.126 8.17872 29.5391 10.2259C29.4744 10.4513 29.41 10.676 29.3456 10.8993C28.678 13.2127 28.0059 15.3917 27.1002 16.9931C26.197 18.5902 25.2163 19.3531 24 19.3531C22.7837 19.3531 21.8031 18.5902 20.8999 16.9932C19.9944 15.3918 19.3224 13.2128 18.6549 10.8993C18.5905 10.6762 18.5261 10.4518 18.4616 10.2266C17.8746 8.17915 17.2705 6.07222 16.4927 4.43791C15.6542 2.67626 14.3938 1 12.3125 1C11.2133 1 10.2683 1.58712 9.49328 2.38635C8.71458 3.18939 8.00923 4.3035 7.36791 5.60283C6.08228 8.20756 4.95305 11.7668 4.01792 15.6726C2.14585 23.4918 1.00001 32.9232 1.00001 39.4117C1.00001 45.7876 6.04032 51 12.3125 51Z" fill="#2CA5F5" stroke="white" stroke-width="2"/>
</svg>

<svg width="48" height="52" fill="none" xmlns="http://www.w3.org/2000/svg"><path d="M12.313 51c3.066 0 4.723-.779 6.27-1.507l.008-.004c1.446-.682 2.785-1.313 5.409-1.313 2.624 0 3.963.631 5.41 1.313l.007.004C30.964 50.22 32.62 51 35.687 51 41.96 51 47 45.788 47 39.412c0-6.489-1.146-15.92-3.018-23.74-.935-3.905-2.065-7.464-3.35-10.07-.641-1.298-1.347-2.413-2.125-3.216C37.732 1.587 36.787 1 35.687 1c-2.08 0-3.34 1.676-4.18 3.438-.777 1.634-1.381 3.74-1.968 5.788l-.193.673c-.668 2.314-1.34 4.493-2.246 6.094-.903 1.597-1.884 2.36-3.1 2.36-1.216 0-2.197-.763-3.1-2.36-.906-1.601-1.578-3.78-2.245-6.094a337.49 337.49 0 01-.193-.672c-.587-2.048-1.192-4.155-1.97-5.79C15.655 2.678 14.395 1 12.313 1c-1.099 0-2.044.587-2.819 1.386-.778.803-1.484 1.917-2.125 3.217-1.286 2.605-2.415 6.164-3.35 10.07C2.146 23.492 1 32.923 1 39.412 1 45.788 6.04 51 12.313 51z" fill="#2CA5F5" stroke="#fff" stroke-width="2"/></svg>
